lib/logo_updates/nrk-logo-nrk-p3-with-bg.svg

<svg width="244" height="84" viewBox="0 0 244 84" fill="none" xmlns="http://www.w3.org/2000/svg">
<rect width="244" height="84" fill="#FFE100"/>
<path d="M182.166 21.0173H169.212C169.212 21.0173 176.573 33.1013 176.656 33.2534C176.933 33.6028 177.088 34.0337 177.097 34.4798C177.106 34.9259 176.968 35.3625 176.704 35.7225L169.212 48.004H182.168C182.168 48.004 188.416 37.7877 189.27 36.3695C189.675 35.8261 189.892 35.1649 189.885 34.4871C189.879 33.8092 189.651 33.1521 189.236 32.6163C188.314 31.0469 188.312 31.048 182.166 21.0173Z" fill="black"/>
<path d="M167.538 21.0175H156V62.9939H167.538V21.0175Z" fill="black"/>
<path d="M222.743 27.9714C222.307 27.2287 218.451 21.0173 218.451 21.0173H190.722L196.779 31.1773H211.385L205.36 41.0539L212.076 52.3379L205.594 62.9907H217.432C219.335 59.8776 222.181 55.0619 222.775 54.0752C223.183 53.5299 223.401 52.8657 223.394 52.1849C223.388 51.504 223.158 50.844 222.741 50.3063C222.148 49.2949 218.978 44.2668 217.083 41.1715C217.083 41.1715 222.181 32.725 222.775 31.7383C223.183 31.1934 223.4 30.5298 223.394 29.8494C223.389 29.169 223.16 28.5092 222.743 27.9714Z" fill="black"/>
<path d="M196.07 42.4179C194.245 45.3986 191.193 50.3942 190.621 51.368C190.219 51.886 189.997 52.5218 189.991 53.1777C189.985 53.8336 190.195 54.4733 190.588 54.9986C191.16 55.9487 194.236 60.9839 196.07 63.9863C197.903 60.9868 200.98 55.9517 201.552 54.9986C201.944 54.4733 202.154 53.8336 202.148 53.1778C202.142 52.522 201.921 51.8862 201.519 51.368C200.947 50.3942 197.894 45.3986 196.07 42.4179Z" fill="black"/>
<path d="M20 63V21.0038H33.7802V63H20ZM52.5283 27.6877L60.4532 63H45.3721L35.9092 21.0038H44.3676C46.3072 20.9786 48.1892 21.6624 49.6607 22.9264C51.1347 24.1373 52.1473 25.8184 52.5283 27.6877ZM62.5233 63V21.0038H76.3035V63H62.5233ZM86.7116 36.9743C85.2267 36.9888 83.7656 36.6003 82.4839 35.8504C81.2193 35.1194 80.1688 34.0689 79.438 32.8041C78.6872 31.5222 78.2986 30.0607 78.3134 28.5751C78.2964 27.0986 78.6853 25.6458 79.438 24.3755C80.1766 23.1245 81.2259 22.0853 82.4839 21.3588C83.766 20.6098 85.2269 20.2213 86.7116 20.2348C88.1877 20.2189 89.6399 20.6078 90.9108 21.3588C92.1562 22.0917 93.1943 23.13 93.9271 24.3755C94.6789 25.6462 95.0677 27.0987 95.0517 28.5751C95.0655 30.0605 94.6769 31.5218 93.9271 32.8041C93.202 34.0633 92.1627 35.113 90.9108 35.8504C89.6398 36.6029 88.1866 36.9918 86.7097 36.9743H86.7116ZM97.1807 63V21.0038H110.962V63H97.1807ZM128.408 43.9538C128.447 43.9946 128.742 44.4776 129.295 45.403C129.848 46.3283 130.567 47.5114 131.454 48.952C132.341 50.392 133.277 51.9199 134.262 53.536C135.247 55.1521 136.174 56.6803 137.043 58.1202C137.908 59.5602 138.894 61.1867 140 63H124.859C123.912 61.4621 123.055 60.0721 122.286 58.83C121.517 57.5878 120.7 56.2471 119.833 54.8077C118.965 53.3698 118.107 51.9699 117.259 50.6081C116.41 49.2464 115.681 48.0536 115.071 47.0297C114.459 46.0051 114.035 45.3149 113.799 44.9594C113.214 44.0771 112.868 43.058 112.794 42.0019C112.853 40.9883 113.179 40.0084 113.74 39.1619C113.976 38.7676 114.41 38.0675 115.041 37.062C115.672 36.0564 116.411 34.8637 117.259 33.4835C118.106 32.1034 118.965 30.6936 119.833 29.2543C120.702 27.815 121.519 26.4643 122.286 25.2025C123.056 23.9419 123.914 22.5421 124.859 21.0029H140L128.289 40.1082C127.926 40.6755 127.722 41.3292 127.697 42.0019C127.736 42.7081 127.983 43.3871 128.406 43.9538H128.408Z" fill="black"/>
</svg>

<svg xmlns="http://www.w3.org/2000/svg" viewBox="0 0 244 84"><path fill="#FFE100" d="M0 0h244v84H0z"/><path fill="#000" d="M182.166 21.017h-12.954s7.361 12.084 7.444 12.236a2.04 2.04 0 0 1 .048 2.47l-7.492 12.281h12.956s6.248-10.216 7.102-11.634a3.098 3.098 0 0 0-.034-3.754c-.922-1.57-.924-1.568-7.07-11.599ZM167.538 21.017H156v41.977h11.538V21.017ZM222.743 27.971c-.436-.742-4.292-6.954-4.292-6.954h-27.729l6.057 10.16h14.606l-6.025 9.877 6.716 11.284-6.482 10.653h11.838c1.903-3.113 4.749-7.93 5.343-8.916a3.111 3.111 0 0 0-.034-3.769c-.593-1.011-3.763-6.04-5.658-9.135 0 0 5.098-8.446 5.692-9.433a3.105 3.105 0 0 0-.032-3.767Z"/><path fill="#000" d="M196.07 42.418c-1.825 2.98-4.877 7.976-5.449 8.95a2.998 2.998 0 0 0-.033 3.63c.572.95 3.648 5.986 5.482 8.988 1.833-3 4.91-8.034 5.482-8.987a3 3 0 0 0-.033-3.631c-.572-.974-3.625-5.97-5.449-8.95ZM20 63V21.004h13.78V63H20Zm32.528-35.312L60.453 63h-15.08l-9.464-41.996h8.459a7.965 7.965 0 0 1 5.293 1.922 8.31 8.31 0 0 1 2.867 4.762ZM62.523 63V21.004h13.78V63h-13.78Zm24.189-26.026a8.213 8.213 0 0 1-4.228-1.124 8.336 8.336 0 0 1-3.046-3.046 8.206 8.206 0 0 1-1.125-4.229 8.056 8.056 0 0 1 1.125-4.2 8.437 8.437 0 0 1 3.046-3.016 8.233 8.233 0 0 1 4.228-1.124 8.083 8.083 0 0 1 4.199 1.124 8.504 8.504 0 0 1 3.016 3.016 8.075 8.075 0 0 1 1.125 4.2 8.226 8.226 0 0 1-1.125 4.23 8.4 8.4 0 0 1-3.016 3.045 8.059 8.059 0 0 1-4.201 1.124h.002ZM97.18 63V21.004h13.781V63H97.181Zm31.227-19.046c.039.04.334.524.887 1.449.553.925 1.272 2.108 2.159 3.549a1143.28 1143.28 0 0 1 5.589 9.168A854.89 854.89 0 0 0 140 63h-15.141c-.947-1.538-1.804-2.928-2.573-4.17a388.795 388.795 0 0 1-2.453-4.022 355.984 355.984 0 0 0-2.574-4.2 210.645 210.645 0 0 1-2.188-3.578 62.13 62.13 0 0 0-1.272-2.07 6.127 6.127 0 0 1-1.005-2.958 5.745 5.745 0 0 1 .946-2.84c.236-.394.67-1.094 1.301-2.1.631-1.006 1.37-2.198 2.218-3.578.847-1.38 1.706-2.79 2.574-4.23.869-1.439 1.686-2.79 2.453-4.052.77-1.26 1.628-2.66 2.573-4.2H140l-11.711 19.106a3.773 3.773 0 0 0-.592 1.894c.039.706.286 1.385.709 1.952h.002Z"/></svg>
